src/assets/icons/save.svg

<svg id="Layer_1" data-name="Layer 1" xmlns="http://www.w3.org/2000/svg" viewBox="0 0 96 96"><path d="M51.955,67.14,67.583,51.512l.932.933V61.77L53.6,76.691H42.4L27.483,61.77V52.445l.933-.933L44.043,67.139v-6.3H41.472L27.483,46.849V37.524l.933-.933L44.043,52.218v-31.8L45.362,19.1h5.275l1.319,1.319v31.8L67.583,36.592l.932.932v9.325L54.527,60.838H51.955v6.3Z" transform="translate(0)" style="fill-rule:evenodd"/><path d="M0,30.857V8.579L8.579,0h71.7L96,15.721v71.7L87.421,96H8.579L0,87.422V30.857ZM82.286,21.4l-7.69-7.69H17.832l-4.118,4.118V78.168l4.118,4.118H78.168l4.118-4.118V21.4Z" transform="translate(0)" style="fill-rule:evenodd"/></svg>

<svg version="1.1" xmlns="http://www.w3.org/2000/svg" xmlns:xlink="http://www.w3.org/1999/xlink" x="0px" y="0px" viewBox="0 0 96 96" style="enable-background:new 0 0 96 96;" xml:space="preserve">
    <polygon class="icon-bg" points="82.29,21.4 74.6,13.71 17.83,13.71 13.71,17.83 13.71,78.17 17.83,82.29 78.17,82.29 82.29,78.17 "/>
    <path class="icon-save-arrow" d="M51.96,67.14l15.63-15.63l0.93,0.93v9.33L53.6,76.69H42.4L27.48,61.77v-9.33l0.93-0.93l15.63,15.63 v-6.3h-2.57L27.48,46.85v-9.33l0.93-0.93l15.63,15.63v-31.8l1.32-1.32h5.28l1.32,1.32v31.8l15.63-15.63l0.93,0.93v9.33L54.53,60.84 h-2.57V67.14L51.96,67.14z"/>
    <path class="icon-save-box" d="M0,30.86V8.58L8.58,0h71.7L96,15.72v71.7L87.42,96H8.58L0,87.42V30.86z M82.29,21.4l-7.69-7.69H17.83 l-4.12,4.12v60.34l4.12,4.12h60.34l4.12-4.12C82.29,78.17,82.29,21.4,82.29,21.4z"/>
</svg>
